X: 9163
T: Dalaigh's
R: polka
M: 2/4
K: Adorian
|:B/d/|eA Bd|e/f/e/d/ Bd|eA BA|G>A Bd|
eA Bd|e/f/e/d/ Bd|ea e/f/e/d/|BA A-:|
|:A|e2 ef/g/|ae fe|d2 de/f/|ge fd|
e2 ef/g/|a/b/a/e/ fd|ea e/f/e/d/|BA A:|

